X: 11672
T: Eileen O'Riordan's
R: slide
M: 12/8
K: Amixolydian
|:E2 A ABA G2 A Bcd|edB d2 B A2 G E2 D|
E2 A ABA G2 A Bcd|edB d2 B A3 A3:|
|:e3 ed^c d3 dcd|e2 A ABA G2 A F2 G|
E2 A ABA G2 A Bcd|edB d2 B A3 A3:|

